svgs/sharp-light/notes-medical.svg

<svg xmlns="http://www.w3.org/2000/svg" viewBox="0 0 512 512"><!--! Font Awesome Pro 6.6.0 by @fontawesome - https://fontawesome.com License - https://fontawesome.com/license (Commercial License) Copyright 2024 Fonticons, Inc. --><path d="M128 416l-32 0 0-32L96 64l0-32 32 0 320 0 32 0 0 32 0 256-96 96-256 0zm242.7-32L448 306.7 448 64 128 64l0 320 242.7 0zM320 480l0 32-16 0L16 512 0 512l0-16L0 144l0-16 32 0 0 16 0 336 272 0 16 0zM256 112l64 0 16 0 0 16 0 48 48 0 16 0 0 16 0 64 0 16-16 0-48 0 0 48 0 16-16 0-64 0-16 0 0-16 0-48-48 0-16 0 0-16 0-64 0-16 16 0 48 0 0-48 0-16 16 0zm16 80l0 16-16 0-48 0 0 32 48 0 16 0 0 16 0 48 32 0 0-48 0-16 16 0 48 0 0-32-48 0-16 0 0-16 0-48-32 0 0 48z"/></svg>

<svg xmlns="http://www.w3.org/2000/svg" viewBox="0 0 512 512"><!--! Font Awesome Pro 6.4.2 by @fontawesome - https://fontawesome.com License - https://fontawesome.com/license (Commercial License) Copyright 2023 Fonticons, Inc. --><path d="M128 416H96V384 64 32h32H448h32V64 320l-96 96H128zm242.7-32L448 306.7V64H128V384H370.7zM320 480v32H304 16 0V496 144 128H32v16l0 336H304h16zM256 112h64 16v16 48h48 16v16 64 16H384 336v48 16H320 256 240V320 272H192 176V256 192 176h16 48V128 112h16zm16 80v16H256 208v32h48 16v16 48h32V256 240h16 48V208H320 304V192 144H272v48z"/></svg>
